X:1
T: Mr Eagers
C:
R:Strathspey
Q: 128
K:A
M:4/4
L:1/16
|:e2|cA3 EA3 c3A e3c|dB3 FB3 d3B f3d|cA3 EA3 c3A e3c|((3d2e2f2) ((3e2f2g2) aA3 A2e2|
cA3 EA3 c3A e3c|dB3 FB3 d3B f3d|cA3 EA3 c3A e3c|((3d2e2f2) ((3e2f2g2) aA3 A2e2|
a3e ce3 ce3 a3g|((3f2d2f2) ((3f2b2a2) ge3 e3g|a3e ce3 ce3 a3g|((3f2d2f2) ((3b2a2g2) a4 a2e2|
a3e ce3 ce3 a3g|((3f2d2f2) ((3f2b2a2) ge3 e3g|((3a2g2a2) ((3b2a2g2) ((3a2g2f2) ((3e2d2c2) |((3f2d2f2) ((3b2a2g2) a6:|
